!!!COM: Palestrina, Giovanni Perluigi da
!!!OPR: Missa De Beata Marie Virginis (II)
!!!OMD: Credo
!!!OTL: Et iterum
**kern	**kern	**kern	**kern	**kern
*Ibass	*Itenor	*Itenor	*Icalto	*Icant
!Bassus	!Tenor 2	!Tenor 1	!Altus	!Cantus
*clefF4	*clefGv2	*clefGv2	*clefG2	*clefG2
*k[]	*k[]	*k[]	*k[]	*k[]
*G:mix	*G:mix	*G:mix	*G:mix	*G:mix
*M4/2	*M4/2	*M4/2	*M4/2	*M4/2
=80	=80	=80	=80	=80
1r	0r	1c	0r	0r
1C	.	2.g	.	.
.	.	4g	.	.
=81	=81	=81	=81	=81
2.G	0r	2g	0r	0r
.	.	2e	.	.
4G	.	.	.	.
2G	.	2d	.	.
2A	.	2c	.	.
=82	=82	=82	=82	=82
2G	0r	2B	2r	0r
2F	.	2A	2c	.
2E	.	2c	2.g	.
2G	.	2B	.	.
.	.	.	4g	.
=83	=83	=83	=83	=83
1c	0r	2.e	2g	0r
.	.	.	2a	.
.	.	8d	.	.
.	.	8c	.	.
2B	.	2d	2g	.
[2A	.	[2c	2f	.
=84	=84	=84	=84	=84
2A]	0r	2c]	2e	0r
2G	.	2B	2g	.
4F	.	4A	[1cc	.
4G	.	4B	.	.
4A	.	4c	.	.
4B	.	4d	.	.
=85	=85	=85	=85	=85
1c	0r	4e	2cc]	1r
.	.	4f#	.	.
.	.	1g	2b	.
1d	.	.	1a	2r
.	.	2f#	.	[2dd
=86	=86	=86	=86	=86
1G	2r	1g	2.b	2dd]
.	1g	.	.	2b
.	.	.	4a	.
2B	.	1r	1g	2dd
2c	2e	.	.	2cc
=87	=87	=87	=87	=87
2G	2g	0r	1r	2b
2.A	2f	.	.	1cc
.	1e	.	2r	.
4A	.	.	.	.
2E	.	.	[2g	4b
.	.	.	.	4a
=88	=88	=88	=88	=88
2G	2d	0r	2g]	2b
2A	2c	.	2e	1cc
1G	2e	.	1g	.
.	4d	.	.	2b
.	4c	.	.	.
=89	=89	=89	=89	=89
0r	4d	0r	2f	2a
.	4A	.	.	.
.	2c	.	2e	1g
.	2B	.	2d	.
.	2A	.	[2c	2f#
=90	=90	=90	=90	=90
1r	1G	1.d	2c]	[0g
.	.	.	4B	.
.	.	.	4A	.
[1G	1r	.	1B	.
.	.	2d	.	.
=91	=91	=91	=91	=91
2G]	2r	2G	2d	1g]
2G	1g	2B	2d	.
2C	.	2c	1e	1r
2E	2g	2B	.	.
=92	=92	=92	=92	=92
2F	2c	2A	0r	0r
2E	2e	2G	.	.
4D	1f	2.A	.	.
4E	.	.	.	.
4F	.	.	.	.
4G	.	4B	.	.
=93	=93	=93	=93	=93
4A	2e	1c	0r	1r
4B	.	.	.	.
1c	2e	.	.	.
.	[1d	[1G	.	[1dd
4B	.	.	.	.
4A	.	.	.	.
=94	=94	=94	=94	=94
1B	1d]	1G]	2r	2dd]
.	.	.	1g	2dd
2c	[1e	2r	.	2g
2G	.	2g	2g	2b
=95	=95	=95	=95	=95
1A	2e]	2e	2c	1cc
.	2.A	2.a	2e	.
1F	.	.	2f	1a
.	4B	4g	.	.
.	2c	4f	[2a	.
.	.	4e	.	.
=96	=96	=96	=96	=96
1G	2B	1d	2a]	1b
.	2G	.	1g	.
1D	1A	1d	.	1a
.	.	.	2f#	.
=97	=97	=97	=97	=97
[0G	[0G	[0d	[0g	[0b
=98	=98	=98	=98	=98
0G]	0G]	0d]	0g]	0b]
*-	*-	*-	*-	*-
!!!CDT: 1525/^1526/-1594/2/2
!!!OCY: Italia
!!!AGN: Mass (Paraphrase)
!!!AST: renaissance, vocal
!!!ASW: Gregorian Mass
!!!PWK: Masses, Book Mantuan I
!!!RNB: Cadence finals: D
!!!YOR: Le Opere Complete, v. 18, p. 126
!!!YOO: Rome, Italy: Fratelli Scalera
!!!END: 1992//
!!!EED: John Miller
!!!YEC: Copyright 2000, John Miller
!!!YEN: United States of America
!!!YEM: Rights to all derivative electronic formats reserved.
!!!YEM: Refer to licensing agreement for further details.
!!!YEM: This file must be accompanied by the licensing agreement.
!!!YEM: A copy of the licensing agreement may be found at http://www.music-cog.ohio-state.edu/HumdrumDatabases/Palestrina/license.txt
!!!EMD: converted to Humdrum by Bret Aarden
